svg/device/router_modem_fill.svg

<?xml version="1.0" encoding="UTF-8"?>
<svg width="24px" height="24px" viewBox="0 0 24 24" version="1.1" xmlns="http://www.w3.org/2000/svg" xmlns:xlink="http://www.w3.org/1999/xlink">
    <title>router_modem_fill</title>
    <g id="Icon" stroke="none" stroke-width="1" fill="none" fill-rule="evenodd">
        <g id="Device" transform="translate(-864.000000, -240.000000)" fill-rule="nonzero">
            <g id="router_modem_fill" transform="translate(864.000000, 240.000000)">
                <path d="M24,0 L24,24 L0,24 L0,0 L24,0 Z M12.5934901,23.257841 L12.5819402,23.2595131 L12.5108777,23.2950439 L12.4918791,23.2987469 L12.4918791,23.2987469 L12.4767152,23.2950439 L12.4056548,23.2595131 C12.3958229,23.2563662 12.3870493,23.2590235 12.3821421,23.2649074 L12.3780323,23.275831 L12.360941,23.7031097 L12.3658947,23.7234994 L12.3769048,23.7357139 L12.4804777,23.8096931 L12.4953491,23.8136134 L12.4953491,23.8136134 L12.5071152,23.8096931 L12.6106902,23.7357139 L12.6232938,23.7196733 L12.6232938,23.7196733 L12.6266527,23.7031097 L12.609561,23.275831 C12.6075724,23.2657013 12.6010112,23.2592993 12.5934901,23.257841 L12.5934901,23.257841 Z M12.8583906,23.1452862 L12.8445485,23.1473072 L12.6598443,23.2396597 L12.6498822,23.2499052 L12.6498822,23.2499052 L12.6471943,23.2611114 L12.6650943,23.6906389 L12.6699349,23.7034178 L12.6699349,23.7034178 L12.678386,23.7104931 L12.8793402,23.8032389 C12.8914285,23.8068999 12.9022333,23.8029875 12.9078286,23.7952264 L12.9118235,23.7811639 L12.8776777,23.1665331 C12.8752882,23.1545897 12.8674102,23.1470016 12.8583906,23.1452862 L12.8583906,23.1452862 Z M12.1430473,23.1473072 C12.1332178,23.1423925 12.1221763,23.1452606 12.1156365,23.1525954 L12.1099173,23.1665331 L12.0757714,23.7811639 C12.0751323,23.7926639 12.0828099,23.8018602 12.0926481,23.8045676 L12.108256,23.8032389 L12.3092106,23.7104931 L12.3186497,23.7024347 L12.3186497,23.7024347 L12.3225043,23.6906389 L12.340401,23.2611114 L12.337245,23.2485176 L12.337245,23.2485176 L12.3277531,23.2396597 L12.1430473,23.1473072 Z" id="MingCute"></path>
                <path d="M12,9.00001 C12.5523,9.00001 13,9.44773 13,10.00001 L13,14.00001 L19,14.00001 C20.1046,14.00001 21,14.8954 21,16.00001 L21,19.00001 C21,20.1046 20.1046,21.00001 19,21.00001 L5,21.00001 C3.89543,21.00001 3,20.1046 3,19.00001 L3,16.00001 C3,14.8954 3.89543,14.00001 5,14.00001 L11,14.00001 L11,10.00001 C11,9.44773 11.4477,9.00001 12,9.00001 Z M6.66173,3.95865 C7.0758,4.32411 7.1152,4.95605 6.74974,5.37012 C5.66007,6.60471 5,8.22407 5,10 C5,10.2972 5.01846,10.5896 5.05421,10.8763 C5.12255,11.4243 4.73367,11.924 4.18563,11.9923 C3.63759,12.0607 3.13792,11.6718 3.06958,11.1238 C3.02362,10.7552 3,10.3802 3,10 C3,7.71821 3.85048,5.6326 5.25026,4.04665 C5.61573,3.63258 6.24766,3.59318 6.66173,3.95865 Z M18.7497,4.04665 C20.1495,5.6326 21.0000002,7.71821 21.0000002,10 C21.0000002,10.3802 20.9764,10.7552 20.9304,11.1238 C20.8621,11.6718 20.3624,12.0607 19.8144,11.9923 C19.2663,11.924 18.8775,11.4243 18.9458,10.8763 C18.9815,10.5897 19.0000002,10.2972 19.0000002,10 C19.0000002,8.22407 18.3399,6.60471 17.2503,5.37012 C16.8848,4.95605 16.9242,4.32411 17.3383,3.95865 C17.7523,3.59318 18.3843,3.63258 18.7497,4.04665 Z M9.66173,6.6044 C10.0758,6.96986 10.1152,7.6018 9.74974,8.01587 C9.28243,8.54533 9,9.23844 9,9.99996 C9,10.1278 9.00794,10.2534 9.02326,10.3762 C9.0916,10.9243 8.70273,11.4239 8.15469,11.4923 C7.60665,11.5606 7.10697,11.1717 7.03863,10.6237 C7.0131,10.419 7,10.2108 7,9.99996 C7,8.73259 7.47284,7.57322 8.25026,6.6924 C8.61573,6.27833 9.24766,6.23893 9.66173,6.6044 Z M15.7497,6.6924 C16.5272,7.57322 17.0000002,8.73259 17.0000002,9.99996 C17.0000002,10.2108 16.9869,10.419 16.9614,10.6237 C16.893,11.1717 16.3934,11.5606 15.8453,11.4923 C15.2973,11.4239 14.9084,10.9243 14.9767,10.3762 C14.9921,10.2534 15.0000002,10.1278 15.0000002,9.99996 C15.0000002,9.23844 14.7176,8.54533 14.2503,8.01587 C13.8848,7.6018 13.9242,6.96986 14.3383,6.6044 C14.7523,6.23893 15.3843,6.27834 15.7497,6.6924 Z" id="形状" fill="#09244B"></path>
            </g>
        </g>
    </g>
</svg>

<svg xmlns="http://www.w3.org/2000/svg" width="24" height="24"><g fill="none" fill-rule="nonzero"><path d="M24 0v24H0V0h24ZM12.593 23.258l-.011.002-.071.035-.02.004-.014-.004-.071-.035c-.01-.004-.019-.001-.024.005l-.004.01-.017.428.005.02.01.013.104.074.015.004.012-.004.104-.074.012-.016.004-.017-.017-.427c-.002-.01-.009-.017-.017-.018Zm.265-.113-.013.002-.185.093-.01.01-.003.011.018.43.005.012.008.007.201.093c.012.004.023 0 .029-.008l.004-.014-.034-.614c-.003-.012-.01-.02-.02-.022Zm-.715.002a.023.023 0 0 0-.027.006l-.006.014-.034.614c0 .012.007.02.017.024l.015-.002.201-.093.01-.008.004-.011.017-.43-.003-.012-.01-.01-.184-.092Z"/><path fill="#09244B" d="M12 9a1 1 0 0 1 1 1v4h6a2 2 0 0 1 2 2v3a2 2 0 0 1-2 2H5a2 2 0 0 1-2-2v-3a2 2 0 0 1 2-2h6v-4a1 1 0 0 1 1-1ZM6.662 3.959A1 1 0 0 1 6.75 5.37 6.97 6.97 0 0 0 5 10c0 .297.018.59.054.876a1 1 0 0 1-1.984.248A9.079 9.079 0 0 1 3 10a8.97 8.97 0 0 1 2.25-5.953 1 1 0 0 1 1.412-.088Zm12.088.088A8.97 8.97 0 0 1 21 10c0 .38-.024.755-.07 1.124a1 1 0 1 1-1.984-.248c.035-.286.054-.579.054-.876a6.97 6.97 0 0 0-1.75-4.63 1 1 0 1 1 1.5-1.323ZM9.662 6.604a1 1 0 0 1 .088 1.412 2.985 2.985 0 0 0-.727 2.36 1 1 0 0 1-1.984.248A4.985 4.985 0 0 1 8.25 6.693a1 1 0 0 1 1.41-.089Zm6.088.088a4.984 4.984 0 0 1 1.211 3.932 1 1 0 0 1-1.984-.248 2.985 2.985 0 0 0-.726-2.36 1 1 0 1 1 1.499-1.324Z"/></g></svg>
